X: 30892
T: Out With The Boys
R: jig
M: 6/8
K: Gmajor
BA|:G3 g2 e|dBG AGE|D2 E GFG|BAA AGE|
GFG g2 e|dBG AGE|D2 G AGA|1 BGG GBA:|2 BGG G2||
|:d|e3 gfe|Bee gfe|Bee gfe|fBB Bcd|
e^de gfe|agf gec|BcB AGA|1 BGF G2:|2 BGF G3||

